X:1
T:Dumfries House. Roose.0268.
T:Dumfries House. Roose.0268.
T:John Riddell (1718-1795)
C:John Riddell (1718-1795)
L:1/8
Q:1/4=120
M:6/8
K:G
V:1 treble 
V:1
 D | G2 G G2 g | dBG GAB | cGE EFG | AFD DEF | G2 G G2 g | dBG GAB | cEA FE"^sic"E | G3 G2 :: d | %10
 dBd dBd | efg gfe | dBd dcB | AFD D2 d | dBd dBd | efg gfe | dcB AGF | G3 G2 :| %18

